trunk/TurtleArtButia.activity/activity/logo_butia_vec.svg

<?xml version="1.0" ?>
<!DOCTYPE svg  PUBLIC '-//W3C//DTD SVG 1.1//EN'
  'http://www.w3.org/Graphics/SVG/1.1/DTD/svg11.dtd' [
        <!ENTITY stroke_color "#000000">
        <!ENTITY fill_color "#FFFFFF">
]><svg
   xmlns:dc="http://purl.org/dc/elements/1.1/"
   xmlns:cc="http://creativecommons.org/ns#"
   xmlns:rdf="http://www.w3.org/1999/02/22-rdf-syntax-ns#"
   xmlns:svg="http://www.w3.org/2000/svg"
   xmlns="http://www.w3.org/2000/svg"
   xmlns:sodipodi="http://sodipodi.sourceforge.net/DTD/sodipodi-0.dtd"
   xmlns:inkscape="http://www.inkscape.org/namespaces/inkscape"
   version="1.0"
   width="48.729118"
   height="50.036259"
   id="svg2381"
   sodipodi:version="0.32"
   inkscape:version="0.48.1 r9760"
   sodipodi:docname="logo_butia_vec.svg"
   inkscape:output_extension="org.inkscape.output.svg.inkscape">
  <g
     transform="matrix(0.89315942,0,0,0.89315942,-281.86152,-342.52147)"
     id="layer1">
    <path
       d="m 354.74583,388.98066 c 0,1.14875 2.09125,2.12625 2.90725,2.67 1.1245,0.75 2.056,1.6325 3.00025,2.57625 1.033,1.03125 1.62725,1.88625 2.51725,3.05875 0.52162,0.6875 1.78125,3.14125 2.43662,3.14125 0.88863,0 1.6145,-0.38125 1.6145,-1.32125 0,-1.275 -3.74687,-5.58 -4.66025,-6.4925 -1.00437,-1.005 -5.00525,-4.80625 -6.49462,-4.80625 -0.59113,0 -1.321,0.53 -1.321,1.17375 l 0,0 0,0 z m -35.66613,8.36375 c 0,0.71 0.46413,1.17375 1.17413,1.17375 1.3615,0 2.17675,-1.91375 2.8765,-2.84625 1.35512,-1.80625 3.75675,-4.39375 5.84162,-5.3125 0.8595,-0.3775 3.02388,-1.4825 3.02388,-2.5525 0,-0.5325 -0.17413,-0.515 -0.29363,-1.0275 -0.86437,-0.0712 -0.306,-0.2925 -0.88062,-0.2925 -2.39388,0 -11.74188,8.56 -11.74188,10.8575 l 0,0 0,0 z m 13.35638,6.75 c 0,1.88875 1.71625,2.9625 2.899,4.145 0.35675,0.3575 3.41237,3.38751 3.41237,3.48626 0,1.29875 -6.605,5.33125 -6.605,7.92375 0,1.615 1.088,2.7875 2.642,2.7875 2.51588,0 7.112,-6.60375 7.92588,-6.60375 0.6175,0 6.14062,6.33625 7.04512,6.45625 2.06013,0.21625 3.52275,-0.70875 3.52275,-2.78875 0,-2.33375 -6.4695,-6.29625 -6.60487,-7.9225 l 6.01775,-5.72376 c 0.312,-0.51625 0.2935,-0.45625 0.2935,-1.02625 0,-1.53375 -0.67363,-3.22875 -2.49513,-3.22875 -2.8235,0 -5.70175,4.92 -7.77912,6.31 -1.85175,-1.23875 -5.17525,-6.31 -7.4855,-6.31 -1.4,0 -2.78875,0.975 -2.78875,2.495 l 0,0 0,0 z m 25.87475,30.27001 c 1.17462,-0.8525 1.92025,-1.49125 2.92962,-2.5 0.76238,-0.7625 4.80713,-5.045 4.80713,-5.90625 0,-1.05875 -0.32963,-1.61375 -1.46788,-1.61375 -0.7505,0 -2.032,2.305 -2.60362,2.9725 -1.76375,2.06 -3.428,3.79 -5.70375,5.30375 -0.7265,0.4825 -2.99413,1.5025 -2.99413,2.435 0,0.80625 0.37825,1.4675 1.32088,1.4675 0.96062,0 2.88562,-1.55875 3.71175,-2.15875 l 0,0 0,0 z m -32.03925,-22.4925 c 0,-4.49001 2.144,-8.69501 4.43962,-10.96876 1.74888,-1.7325 2.151,-2.10125 4.41725,-3.36125 4.97063,-2.76125 10.74488,-2.13125 15.72163,0.3225 2.89275,1.4275 5.064,4.1625 6.56412,6.9375 3.35613,6.20625 1.4845,14.10001 -3.29175,18.91876 -3.18725,3.21625 -7.04062,4.39 -11.26262,4.62375 -4.67588,-0.595 -8.16875,-1.21375 -11.6345,-4.6975 -3.13913,-3.155 -4.95375,-7.32 -4.95375,-11.775 l 0,0 0,0 z m 0.84412,15.00375 c 1.48563,1.485 3.68463,3.37 5.656,4.32375 1.50763,0.72875 5.7005,2.2425 7.737,2.2425 l 2.93563,0 c 11.18037,0 20.84187,-9.83125 20.84187,-20.98375 l 0,-1.76001 c 0,-3.2775 -1.28637,-5.80625 -2.18387,-8.08875 -0.84325,-2.14375 -2.78088,-4.4325 -4.31063,-5.96125 -3.0085,-3.00875 -8.41575,-6.2 -14.34737,-6.2 -6.65488,0 -13.27625,2.53875 -17.49475,7.895 -2.55363,3.2425 -4.81513,7.805 -4.81513,13.52876 0,5.58625 1.99363,11.0175 5.98125,15.00375 l 0,0 0,0 z m 4.14625,8.18 c 0,-1.7675 -1.882,-2.07875 -3.02375,-2.84625 -2.17137,-1.45875 -4.28975,-3.34 -5.84387,-5.45625 -0.629,-0.8575 -1.61513,-2.84875 -2.72763,-2.84875 -1.00037,0 -1.17412,0.85375 -1.17412,1.61375 0,0.89 4.15375,5.55625 4.99025,6.1625 1.12662,0.8175 5.10012,4.4025 6.60487,4.4025 0.44275,0 1.17425,-0.59875 1.17425,-1.0275 l 0,0 0,0 z"
       id="path32"
       style="fill:&fill_color;;stroke:&stroke_color;;stroke-width:2"
       inkscape:connector-curvature="0" />
  </g>
</svg>

<?xml version="1.0" encoding="UTF-8" standalone="no"?>
<!-- Created with Inkscape (http://www.inkscape.org/) -->
<svg
   xmlns:dc="http://purl.org/dc/elements/1.1/"
   xmlns:cc="http://creativecommons.org/ns#"
   xmlns:rdf="http://www.w3.org/1999/02/22-rdf-syntax-ns#"
   xmlns:svg="http://www.w3.org/2000/svg"
   xmlns="http://www.w3.org/2000/svg"
   xmlns:sodipodi="http://sodipodi.sourceforge.net/DTD/sodipodi-0.dtd"
   xmlns:inkscape="http://www.inkscape.org/namespaces/inkscape"
   version="1.0"
   width="48.729118"
   height="50.036259"
   id="svg2381"
   sodipodi:version="0.32"
   inkscape:version="0.46"
   sodipodi:docname="butiaoff.svg"
   inkscape:output_extension="org.inkscape.output.svg.inkscape">
  <metadata
     id="metadata3470">
    <rdf:RDF>
      <cc:Work
         rdf:about="">
        <dc:format>image/svg+xml</dc:format>
        <dc:type
           rdf:resource="http://purl.org/dc/dcmitype/StillImage" />
      </cc:Work>
    </rdf:RDF>
  </metadata>
  <sodipodi:namedview
     inkscape:window-height="727"
     inkscape:window-width="960"
     inkscape:pageshadow="2"
     inkscape:pageopacity="0.0"
     guidetolerance="10.0"
     gridtolerance="10.0"
     objecttolerance="10.0"
     borderopacity="1.0"
     bordercolor="#666666"
     pagecolor="#ffffff"
     id="base"
     showgrid="false"
     inkscape:zoom="0.98728424"
     inkscape:cx="242.08354"
     inkscape:cy="145.44949"
     inkscape:window-x="154"
     inkscape:window-y="81"
     inkscape:current-layer="layer1" />
  <defs
     id="defs2383">
    <inkscape:perspective
       sodipodi:type="inkscape:persp3d"
       inkscape:vp_x="0 : 250.18124 : 1"
       inkscape:vp_y="0 : 1000 : 0"
       inkscape:vp_z="487.29123 : 250.18124 : 1"
       inkscape:persp3d-origin="243.64561 : 166.7875 : 1"
       id="perspective3472" />
  </defs>
  <g
     transform="translate(-318.49258,-386.48691)"
     id="layer1">
    <path
       d="M 354.74583,388.98066 C 354.74583,390.12941 356.83708,391.10691 357.65308,391.65066 C 358.77758,392.40066 359.70908,393.28316 360.65333,394.22691 C 361.68633,395.25816 362.28058,396.11316 363.17058,397.28566 C 363.6922,397.97316 364.95183,400.42691 365.6072,400.42691 C 366.49583,400.42691 367.2217,400.04566 367.2217,399.10566 C 367.2217,397.83066 363.47483,393.52566 362.56145,392.61316 C 361.55708,391.60816 357.5562,387.80691 356.06683,387.80691 C 355.4757,387.80691 354.74583,388.33691 354.74583,388.98066 L 354.74583,388.98066 L 354.74583,388.98066 z M 319.0797,397.34441 C 319.0797,398.05441 319.54383,398.51816 320.25383,398.51816 C 321.61533,398.51816 322.43058,396.60441 323.13033,395.67191 C 324.48545,393.86566 326.88708,391.27816 328.97195,390.35941 C 329.83145,389.98191 331.99583,388.87691 331.99583,387.80691 C 331.99583,387.27441 331.8217,387.29191 331.7022,386.77941 C 330.83783,386.70816 331.3962,386.48691 330.82158,386.48691 C 328.4277,386.48691 319.0797,395.04691 319.0797,397.34441 L 319.0797,397.34441 L 319.0797,397.34441 z M 332.43608,404.09441 C 332.43608,405.98316 334.15233,407.05691 335.33508,408.23941 C 335.69183,408.59691 338.74745,411.62692 338.74745,411.72567 C 338.74745,413.02442 332.14245,417.05692 332.14245,419.64942 C 332.14245,421.26442 333.23045,422.43692 334.78445,422.43692 C 337.30033,422.43692 341.89645,415.83317 342.71033,415.83317 C 343.32783,415.83317 348.85095,422.16942 349.75545,422.28942 C 351.81558,422.50567 353.2782,421.58067 353.2782,419.50067 C 353.2782,417.16692 346.8087,413.20442 346.67333,411.57817 L 352.69108,405.85441 C 353.00308,405.33816 352.98458,405.39816 352.98458,404.82816 C 352.98458,403.29441 352.31095,401.59941 350.48945,401.59941 C 347.66595,401.59941 344.7877,406.51941 342.71033,407.90941 C 340.85858,406.67066 337.53508,401.59941 335.22483,401.59941 C 333.82483,401.59941 332.43608,402.57441 332.43608,404.09441 L 332.43608,404.09441 L 332.43608,404.09441 z M 358.31083,434.36442 C 359.48545,433.51192 360.23108,432.87317 361.24045,431.86442 C 362.00283,431.10192 366.04758,426.81942 366.04758,425.95817 C 366.04758,424.89942 365.71795,424.34442 364.5797,424.34442 C 363.8292,424.34442 362.5477,426.64942 361.97608,427.31692 C 360.21233,429.37692 358.54808,431.10692 356.27233,432.62067 C 355.54583,433.10317 353.2782,434.12317 353.2782,435.05567 C 353.2782,435.86192 353.65645,436.52317 354.59908,436.52317 C 355.5597,436.52317 357.4847,434.96442 358.31083,434.36442 L 358.31083,434.36442 L 358.31083,434.36442 z M 326.27158,411.87192 C 326.27158,407.38191 328.41558,403.17691 330.7112,400.90316 C 332.46008,399.17066 332.8622,398.80191 335.12845,397.54191 C 340.09908,394.78066 345.87333,395.41066 350.85008,397.86441 C 353.74283,399.29191 355.91408,402.02691 357.4142,404.80191 C 360.77033,411.00816 358.8987,418.90192 354.12245,423.72067 C 350.9352,426.93692 347.08183,428.11067 342.85983,428.34442 C 338.18395,427.74942 334.69108,427.13067 331.22533,423.64692 C 328.0862,420.49192 326.27158,416.32692 326.27158,411.87192 L 326.27158,411.87192 L 326.27158,411.87192 z M 327.1157,426.87567 C 328.60133,428.36067 330.80033,430.24567 332.7717,431.19942 C 334.27933,431.92817 338.4722,433.44192 340.5087,433.44192 L 343.44433,433.44192 C 354.6247,433.44192 364.2862,423.61067 364.2862,412.45817 L 364.2862,410.69816 C 364.2862,407.42066 362.99983,404.89191 362.10233,402.60941 C 361.25908,400.46566 359.32145,398.17691 357.7917,396.64816 C 354.7832,393.63941 349.37595,390.44816 343.44433,390.44816 C 336.78945,390.44816 330.16808,392.98691 325.94958,398.34316 C 323.39595,401.58566 321.13445,406.14816 321.13445,411.87192 C 321.13445,417.45817 323.12808,422.88942 327.1157,426.87567 L 327.1157,426.87567 L 327.1157,426.87567 z M 331.26195,435.05567 C 331.26195,433.28817 329.37995,432.97692 328.2382,432.20942 C 326.06683,430.75067 323.94845,428.86942 322.39433,426.75317 C 321.76533,425.89567 320.7792,423.90442 319.6667,423.90442 C 318.66633,423.90442 318.49258,424.75817 318.49258,425.51817 C 318.49258,426.40817 322.64633,431.07442 323.48283,431.68067 C 324.60945,432.49817 328.58295,436.08317 330.0877,436.08317 C 330.53045,436.08317 331.26195,435.48442 331.26195,435.05567 L 331.26195,435.05567 L 331.26195,435.05567 z"
       id="path32"
       style="fill:#85c229;stroke:none" />
  </g>
</svg>
